z_dist/img/icons/interface/phone_chat_bubbles.svg

<svg width="64" height="64" viewBox="0 0 64 64" fill="none" xmlns="http://www.w3.org/2000/svg">
<path d="M43.4286 4.57153H20.5714C18.0467 4.57153 16 6.61823 16 9.14296V54.8573C16 57.382 18.0467 59.4287 20.5714 59.4287H43.4286C45.9533 59.4287 48 57.382 48 54.8573V9.14296C48 6.61823 45.9533 4.57153 43.4286 4.57153Z" stroke="#111111" stroke-width="2" stroke-miterlimit="10"/>
<path d="M35.4286 27.4286H27.4286L22.8572 29.7144V14.8572C22.8572 14.5541 22.9776 14.2634 23.1919 14.0491C23.4062 13.8348 23.6969 13.7144 24 13.7144H35.4286C35.7317 13.7144 36.0224 13.8348 36.2367 14.0491C36.4511 14.2634 36.5715 14.5541 36.5715 14.8572V26.2858C36.5715 26.5889 36.4511 26.8796 36.2367 27.0939C36.0224 27.3082 35.7317 27.4286 35.4286 27.4286Z" stroke="#111111" stroke-width="2" stroke-miterlimit="10"/>
<path d="M28.5713 50.2858H36.5713L41.1428 52.5715V37.7144C41.1428 37.4113 41.0223 37.1206 40.808 36.9063C40.5937 36.6919 40.303 36.5715 39.9999 36.5715H28.5713C28.2682 36.5715 27.9775 36.6919 27.7632 36.9063C27.5489 37.1206 27.4285 37.4113 27.4285 37.7144V49.143C27.4285 49.4461 27.5489 49.7368 27.7632 49.9511C27.9775 50.1654 28.2682 50.2858 28.5713 50.2858Z" stroke="#111111" stroke-width="2" stroke-miterlimit="10"/>
</svg>

<svg width="64" height="64" fill="none" xmlns="http://www.w3.org/2000/svg"><path d="M43.429 4.572H20.57A4.571 4.571 0 0016 9.143v45.714a4.571 4.571 0 004.571 4.572H43.43A4.571 4.571 0 0048 54.857V9.143a4.571 4.571 0 00-4.571-4.571z" stroke="#111" stroke-width="2" stroke-miterlimit="10"/><path d="M35.429 27.429h-8l-4.572 2.285V14.857A1.143 1.143 0 0124 13.714h11.429a1.143 1.143 0 011.142 1.143v11.429a1.143 1.143 0 01-1.142 1.143zm-6.858 22.857h8l4.572 2.285V37.715A1.143 1.143 0 0040 36.572H28.57a1.143 1.143 0 00-1.143 1.142v11.429a1.143 1.143 0 001.143 1.143z" stroke="#111" stroke-width="2" stroke-miterlimit="10"/></svg>
